X: 1
T: The Altamont Fair
T: a.k.a. Peter Price's Compliment to Geoff and Pat Walshe
T: 8x32R 3C (Peter Price leaflet)
T: 1 S&C, S&C updown; 1 R3across; set CPCP; pass&turn, pass&turn
P: Farewell to Tchernobyl
C: (C) 1986 Jean Michel Ferry (France) (orig. title "Return to Tchernobyl")
C: from "Opus Blue" CD by Catriona MacDonald and Ian Lowthian
C: trans. T. Traub 10-14-2014
M: 4/4
L: 1/8
K: Dm 
|: "Dm"D3 F ADFA|"Dm"DFAF GFEC|"Am"A,3 C EA,CE|"Am"A,CEE c=BAG|"Dm"D3 F ADFA|"Dm"DFAF FGA=B|"C"c2 Gc EcGe|"C"fedc "Dm"d4 :|
"Dm"d2 fd gdfd|"Dm"d2 fd "C"gfec|"Dm"d2 fd gdfd|"Am"e3 f edcA|"Dm"d2 fd gdfd|"Bb"d2 fd gfeg|"Am"a3 a a2 ef|"Am"e2 ef edcA||
"Dm"d2 fd gdfd|"Dm"d2 fd "C"gfec|"Bb"d2 fd gdfd|"Am"e3 f edcA|"Dm"Adfd Adfd|"Bb"Bdfd Bdfd|"C"cege agfe|"Gm"fedc "Am"dBAF |]

